raw/symbols/ankr.svg

<svg width="42" height="42" viewBox="0 0 42 42" fill="none" xmlns="http://www.w3.org/2000/svg">
<circle cx="21" cy="21" r="20" fill="#579BF0"/>
<circle cx="21" cy="20.5" r="4.5" stroke="#F3F3F3" stroke-width="3"/>
<path d="M10.5 17.5V15.1051C10.5 14.7331 10.7065 14.3918 11.036 14.2192L20.536 9.24305C20.8266 9.09083 21.1734 9.09083 21.464 9.24305L30.964 14.2192C31.2935 14.3918 31.5 14.7331 31.5 15.1051V17.5" stroke="#F3F3F3" stroke-width="3"/>
<path d="M31.5 24L31.5 26.3949C31.5 26.7669 31.2935 27.1082 30.964 27.2808L21.464 32.2569C21.1734 32.4092 20.8266 32.4092 20.536 32.2569L11.036 27.2808C10.7065 27.1082 10.5 26.7669 10.5 26.3949L10.5 24" stroke="#F3F3F3" stroke-width="3"/>
<path d="M21 25.5V32.5" stroke="#F3F3F3" stroke-width="3"/>
</svg>

<svg xmlns="http://www.w3.org/2000/svg" width="42" height="42" fill="none"><circle cx="21" cy="21" r="20" fill="#579BF0"/><circle cx="21" cy="20.5" r="4.5" stroke="#F3F3F3" stroke-width="3"/><path stroke="#F3F3F3" stroke-width="3" d="M10.5 17.5v-2.395a1 1 0 0 1 .536-.886l9.5-4.976a1 1 0 0 1 .928 0l9.5 4.976a1 1 0 0 1 .536.886V17.5M31.5 24v2.395a1 1 0 0 1-.536.886l-9.5 4.976a1 1 0 0 1-.928 0l-9.5-4.976a1 1 0 0 1-.536-.886V24M21 25.5v7"/></svg>
